resources/haticons/SVG/sports_baseball.svg

<!-- Generated by IcoMoon.io -->
<svg version="1.1" xmlns="http://www.w3.org/2000/svg" width="24" height="24" viewBox="0 0 24 24">
<title>sports_baseball</title>
<path d="M14.016 12q0 2.156 1.406 4.289t3.375 3.023q-2.906 2.672-6.797 2.672t-6.797-2.672q2.156-0.938 3.469-2.906t1.313-4.406-1.313-4.406-3.469-2.906q2.906-2.672 6.797-2.672t6.797 2.672q-2.156 0.938-3.469 2.906t-1.313 4.406zM20.203 6.281q1.781 2.578 1.781 5.719t-1.781 5.719q-1.828-0.563-3.023-2.156t-1.195-3.563 1.195-3.563 3.023-2.156zM3.797 6.281q1.828 0.563 3.023 2.156t1.195 3.563-1.195 3.563-3.023 2.156q-1.781-2.578-1.781-5.719t1.781-5.719z"></path>
</svg>

<svg xmlns="http://www.w3.org/2000/svg" width="24" height="24"><path d="M14.016 12q0 2.156 1.406 4.289t3.375 3.023Q15.891 21.984 12 21.984t-6.797-2.672q2.156-.938 3.469-2.906T9.985 12 8.672 7.594 5.203 4.688Q8.109 2.016 12 2.016t6.797 2.672q-2.156.938-3.469 2.906T14.015 12zm6.187-5.719Q21.984 8.859 21.984 12t-1.781 5.719q-1.828-.563-3.023-2.156T15.985 12t1.195-3.563 3.023-2.156zm-16.406 0q1.828.563 3.023 2.156T8.015 12 6.82 15.563t-3.023 2.156Q2.016 15.141 2.016 12t1.781-5.719z"/></svg>
